!!!OTL: 4a. Das buckelige Maennlein.
!!!ARE: Europa, Mitteleuropa, Deutschland
!!!SCT: E0004
!!!TXL: @@DE
!!!YEM: Copyright 1995, estate of Helmut Schaffrath.
**kern	**text
*ICvox	*
*M2/4	*
*k[f#]	*
*G:	*
=1	=1
!LO:TX:a:t=Heiter.	!
!LO:TX:a:t=Volksweiſe ſeit 1810.	!
{8g	Will
8g	ich
8f#	in
8g	mein
=2	=2
8a	Gärt-
16aL	-chen
16bJ	.
8g	gehn,
8r}	.
=3	=3
{8.cc	will
16b	mein
8a	Ʒwie-
8dd	-beln
=4	=4
4b/	gie-
8g	-ßen,
8r}	.
=5	=5
{8dd	ſteht
16eeL	ein
16ddJ	.
8cc	buck-
16ddL	-lig
16ccJ	.
=6	=6
8b	Männ-
16ccL	-lein
16bJ	.
8a	da,
8r}	.
=7	=7
{8b	fängt
8cc	gleich
8dd	an
16eeL	ʒu
16ccJ	.
=8	=8
8bL	nie-
8aJ	.
8g	-ßen.
8r}	.
==	==
!!!AGN: Sage, Maerchen -, Zauber - Lied, Ballade ?
!!!ONB: ESAC (Essen Associative Code) Database: ERK1
!!!AMT: simple duple
!!!AIN: vox
!!!EED: Helmut Schaffrath
!!!EEV: 1.0
!!!GTL: Nachtklaenge der Goettersage (Zaubermaeren)
!!!URL-scan: https://rosdok.uni-rostock.de/mcrviewer/recordIdentifier/rosdok_ppn745146120/iview2/phys_0084.iview2?x=-4.404412318552431&y=64.03668066189857&scale=0.645690413860662&rotation=0&layout=singlePageLayout&logicalDiv=log_0009
!!!ENC: Anna Maria Matuszewska
!!!EEV: 2024/22/11
*-	*-
